packages/core/src/svgs/tokens/mono/NRCH.svg

<svg width="24" height="24" viewBox="0 0 24 24" fill="none" xmlns="http://www.w3.org/2000/svg">
<path d="M7.35713 9.85725V4.09294C7.359 3.81563 7.41558 3.5414 7.52365 3.286C7.63173 3.0306 7.78914 2.79904 7.98689 2.6046C8.18464 2.41017 8.41884 2.25669 8.67604 2.15296C8.93322 2.04923 9.20836 1.99728 9.48568 2.00011H21.6427V3.47866C21.6241 4.04391 21.3849 4.57942 20.9764 4.97057C20.5679 5.36171 20.0226 5.57741 19.4571 5.57149H12.1713C11.8785 5.57149 11.6428 5.80008 11.6428 6.08577V9.85725H19.4999V11.3714C19.4952 11.6462 19.4364 11.9176 19.3269 12.1697C19.2174 12.4217 19.0594 12.6499 18.8617 12.8409C18.6641 13.0319 18.4307 13.1822 18.1749 13.2831C17.9193 13.3839 17.6461 13.4332 17.3713 13.4286H4.48572C4.21088 13.4332 3.9378 13.3839 3.68207 13.2831C3.42633 13.1822 3.19297 13.0319 2.99532 12.8409C2.79766 12.6499 2.63956 12.4217 2.53006 12.1697C2.42058 11.9176 2.36183 11.6462 2.35718 11.3714V9.85725H7.35713Z" fill="white"/>
<path d="M11.6429 15.5713V17.7999C11.6429 18.1499 11.9286 18.4284 12.2644 18.4284H19.5072C19.7892 18.4294 20.0682 18.4859 20.3283 18.5949C20.5883 18.7039 20.8243 18.8633 21.0228 19.0636C21.2211 19.2641 21.3781 19.5016 21.4845 19.7628C21.5908 20.0239 21.6446 20.3036 21.6428 20.5856V21.9999H9.49292C9.21091 21.9989 8.93186 21.9424 8.67176 21.8334C8.41168 21.7244 8.17567 21.5651 7.97725 21.3646C7.77884 21.1642 7.62194 20.9266 7.51554 20.6654C7.40914 20.4042 7.35534 20.1247 7.35723 19.8427V15.5713H11.6429Z" fill="white"/>
</svg>

<svg xmlns="http://www.w3.org/2000/svg" width="24" height="24" fill="none" viewBox="0 0 24 24">
    <path fill="#fff" d="M7.357 9.857V4.093A2.107 2.107 0 0 1 9.486 2h12.157v1.48a2.164 2.164 0 0 1-2.186 2.092h-7.286a.52.52 0 0 0-.528.515v3.771H19.5v1.514a2.094 2.094 0 0 1-2.129 2.058H4.486a2.096 2.096 0 0 1-2.129-2.058V9.857zm4.286 5.714V17.8c0 .35.286.628.621.628h7.243a2.144 2.144 0 0 1 2.136 2.158V22H9.493a2.144 2.144 0 0 1-2.136-2.157V15.57z"/>
</svg>
